src/activities/game/1F9E9.svg

<svg id="emoji" viewBox="0 0 72 72" xmlns="http://www.w3.org/2000/svg">
  <g id="grid">
    <path fill="#b3b3b3" d="M68,4V68H4V4H68m4-4H0V72H72V0Z"/>
    <path fill="none" stroke="#00a5ff" stroke-miterlimit="10" stroke-width="0.1" d="M12.923,10.9583H59.0769A1.9231,1.9231,0,0,1,61,12.8814V59.0352a1.9231,1.9231,0,0,1-1.9231,1.9231H12.9231A1.9231,1.9231,0,0,1,11,59.0352V12.8813A1.923,1.923,0,0,1,12.923,10.9583Z"/>
    <rect x="16" y="4" rx="2.2537" width="40" height="64" fill="none" stroke="#00a5ff" stroke-miterlimit="10" stroke-width="0.1"/>
    <rect x="16" y="4" rx="2.2537" width="40" height="64" transform="translate(72 0) rotate(90)" fill="none" stroke="#00a5ff" stroke-miterlimit="10" stroke-width="0.1"/>
    <circle cx="36" cy="36" r="29" fill="none" stroke="#00a5ff" stroke-miterlimit="10" stroke-width="0.1"/>
  </g>
  <g id="color">
    <path fill="#92d3f5" d="M39.7792,57.8819H52.77V44.851c5.2976,0,11.6314,1.4,11.6314-6.1934,0-6.7613-6.3338-5.8535-11.6314-5.8535V19.5133H39.7792c1.8239-5.8157,1.8239-11.6314-4.9774-11.6314s-6.73,6.3338-6.73,11.6314H14.4016V33.5239c4.2433-1.5715,11.6314-4.4184,11.6314,5.1737s-8.48,6.5814-11.6314,5.1737V57.8819H26.3729c0-5.2976,0-12.383,7.213-12.3112C40.3686,45.6382,39.7792,52.5843,39.7792,57.8819Z"/>
    <path fill="#61b2e4" d="M39.0542,51.0992c1.7359,1.7359,1.11,4.1339,1.11,6.7827H52.77V43.8713c5.8157,1.0357,10.9968,3.6045,10.9968-5.2137,0-5.2976-4.9743-6.1934-10.2719-6.1934V19.8154H49.3788"/>
  </g>
  <g id="line">
    <polyline fill="none" stroke="#000" stroke-linecap="round" stroke-linejoin="round" stroke-width="2" points="14.402 33.524 14.402 19.513 29.628 19.513"/>
    <polyline fill="none" stroke="#000" stroke-linecap="round" stroke-linejoin="round" stroke-width="2" points="28 57.882 14.402 57.882 14.402 43.871"/>
    <polyline fill="none" stroke="#000" stroke-linecap="round" stroke-linejoin="round" stroke-width="2" points="52.77 43.871 52.77 57.882 38.348 57.882"/>
    <polyline fill="none" stroke="#000" stroke-linecap="round" stroke-linejoin="round" stroke-width="2" points="39.976 19.513 52.77 19.513 52.77 33.524"/>
    <g>
      <path fill="none" stroke="#000" stroke-linecap="round" stroke-linejoin="round" stroke-width="2" d="M14.4016,33.5239c2.6813-2.3413,11.6314-3.2873,11.6314,5.1737"/>
      <path fill="none" stroke="#000" stroke-linecap="round" stroke-linejoin="round" stroke-width="2" d="M14.4016,43.8713c2.6813,2.3413,11.6314,3.2873,11.6314-5.1737"/>
    </g>
    <g>
      <path fill="none" stroke="#000" stroke-linecap="round" stroke-linejoin="round" stroke-width="2" d="M28.0005,57.8819c-2.3414-2.6814-3.2873-11.6314,5.1737-11.6314"/>
      <path fill="none" stroke="#000" stroke-linecap="round" stroke-linejoin="round" stroke-width="2" d="M38.3479,57.8819c2.3413-2.6814,3.2873-11.6314-5.1737-11.6314"/>
    </g>
    <g>
      <path fill="none" stroke="#000" stroke-linecap="round" stroke-linejoin="round" stroke-width="2" d="M29.6281,19.5133c-2.3414-2.6814-3.2873-11.6314,5.1737-11.6314"/>
      <path fill="none" stroke="#000" stroke-linecap="round" stroke-linejoin="round" stroke-width="2" d="M39.9755,19.5133c2.3413-2.6814,3.2873-11.6314-5.1737-11.6314"/>
    </g>
    <g>
      <path fill="none" stroke="#000" stroke-linecap="round" stroke-linejoin="round" stroke-width="2" d="M52.77,43.8713c2.6813,2.3413,11.6314,3.2873,11.6314-5.1737"/>
      <path fill="none" stroke="#000" stroke-linecap="round" stroke-linejoin="round" stroke-width="2" d="M52.77,33.5239c2.6813-2.3413,11.6314-3.2873,11.6314,5.1737"/>
    </g>
  </g>
</svg>

<svg viewBox="0 0 72 72" xmlns="http://www.w3.org/2000/svg"><path fill="#b3b3b3" d="M68 4v64H4V4h64m4-4H0v72h72V0z"/><path fill="none" stroke="#00a5ff" stroke-miterlimit="10" stroke-width=".1" d="M12.923 10.958h46.154A1.923 1.923 0 0161 12.881v46.154a1.923 1.923 0 01-1.923 1.923H12.923A1.923 1.923 0 0111 59.035V12.881a1.923 1.923 0 011.923-1.923z"/><rect x="16" y="4" rx="2.254" width="40" height="64" fill="none" stroke="#00a5ff" stroke-miterlimit="10" stroke-width=".1"/><rect x="16" y="4" rx="2.254" width="40" height="64" transform="rotate(90 36 36)" fill="none" stroke="#00a5ff" stroke-miterlimit="10" stroke-width=".1"/><circle cx="36" cy="36" r="29" fill="none" stroke="#00a5ff" stroke-miterlimit="10" stroke-width=".1"/><g stroke-linecap="round" stroke-miterlimit="10" stroke-width="6" stroke="#fff" fill="none" stroke-linejoin="round"><path d="M14.402 33.524V19.513h15.226M28 57.882H14.402V43.871m38.368 0v14.011H38.348m1.628-38.369H52.77v14.011m-38.368 0c2.68-2.341 11.631-3.287 11.631 5.174m-11.631 5.173c2.68 2.342 11.631 3.288 11.631-5.173M28 57.882C25.66 55.2 24.713 46.25 33.175 46.25m5.173 11.632c2.341-2.681 3.287-11.631-5.174-11.631M29.628 19.513c-2.341-2.681-3.287-11.631 5.174-11.631m5.173 11.631c2.342-2.681 3.288-11.631-5.173-11.631M52.77 43.871c2.681 2.342 11.631 3.288 11.631-5.173M52.77 33.524c2.681-2.341 11.631-3.287 11.631 5.174"/></g><path fill="#92d3f5" d="M39.78 57.882h12.99V44.85c5.298 0 11.631 1.4 11.631-6.193 0-6.762-6.333-5.854-11.631-5.854v-13.29H39.78c1.823-5.816 1.823-11.632-4.978-11.632s-6.73 6.334-6.73 11.631h-13.67v14.01c4.243-1.57 11.631-4.418 11.631 5.175s-8.48 6.581-11.631 5.173v14.01h11.97c0-5.297 0-12.382 7.214-12.31 6.783.067 6.193 7.013 6.193 12.31z"/><path fill="#61b2e4" d="M39.054 51.1c1.736 1.735 1.11 4.133 1.11 6.782H52.77v-14.01c5.816 1.035 10.997 3.604 10.997-5.214 0-5.298-4.974-6.194-10.272-6.194V19.815h-4.116"/><g fill="none" stroke="#000" stroke-linecap="round" stroke-linejoin="round" stroke-width="2"><path d="M14.402 33.524V19.513h15.226M28 57.882H14.402V43.871m38.368 0v14.011H38.348m1.628-38.369H52.77v14.011m-38.368 0c2.68-2.341 11.631-3.287 11.631 5.174m-11.631 5.173c2.68 2.342 11.631 3.288 11.631-5.173M28 57.882C25.66 55.2 24.713 46.25 33.175 46.25m5.173 11.632c2.341-2.681 3.287-11.631-5.174-11.631M29.628 19.513c-2.341-2.681-3.287-11.631 5.174-11.631m5.173 11.631c2.342-2.681 3.288-11.631-5.173-11.631M52.77 43.871c2.681 2.342 11.631 3.288 11.631-5.173M52.77 33.524c2.681-2.341 11.631-3.287 11.631 5.174"/></g></svg>
